brandFactory_export/3.Masa/(2)AI_Inteligencia Artificial_3Masa.svg

<?xml version="1.0" encoding="UTF-8"?>
<svg width="24px" height="24px" viewBox="0 0 24 24" version="1.1" xmlns="http://www.w3.org/2000/svg" xmlns:xlink="http://www.w3.org/1999/xlink">
    <title>3.Masa/(2)AI_Inteligencia Artificial_3Masa</title>
    <g id="Symbols" stroke="none" stroke-width="1" fill="none" fill-rule="evenodd">
        <g id="3.Masa/(2)AI_Inteligencia-Artificial_3Masa" fill="#5CB615" fill-rule="nonzero">
            <path d="M13.2857143,0 C19.3327731,0 22.6638655,3.27058824 22.6638655,9.20672269 C22.6638655,10.410084 22.5226891,11.4453782 22.2840336,12.3495798 L16.0655462,12.3495798 C15.9277311,12.0201681 15.7058824,11.7344538 15.4235294,11.5159664 L16.9226891,7.46554622 C17.8235294,7.23697479 18.492437,6.44033613 18.492437,5.48571429 C18.492437,4.35294118 17.5546218,3.43193277 16.3983193,3.43193277 C15.5579832,3.43193277 14.8319328,3.92268908 14.502521,4.62857143 L12.6806723,4.62857143 L12.6806723,0.0201680672 C12.8823529,0.0134453782 13.0806723,0 13.2857143,0 L13.2857143,0 Z M14.1294118,15.1731092 C14.9764706,15.1764706 15.7394958,14.6689076 16.0689076,13.8890756 L21.7193277,13.8890756 C20.9529412,15.5058824 19.8369748,16.5344538 18.7411765,17.1596639 L18.7277311,22.5983193 C18.7210084,23.1697479 18.2537815,23.6268908 17.6823529,23.6235478 L8.80840336,23.6235478 C8.23697479,23.6268908 7.7697479,23.1697479 7.76302521,22.5983193 L7.76302521,20.7596639 C6.35798319,20.6184874 5.32268908,20.1815126 4.68067227,19.4521008 C4.12605042,18.8268908 3.97815126,18.087395 4.01848739,17.6 L3.98823529,15.589916 L1.78991597,15.0218487 C1.43697479,14.9310924 1.15462185,14.6621849 1.05042017,14.3092437 C0.949579832,13.9596639 1.04369748,13.5831933 1.29579832,13.3210084 C2.06218487,12.5243697 2.70084034,11.6638655 3.19495798,10.7697479 C3.63865546,9.95966387 3.8907563,9.13613445 3.93781513,8.31932773 C4.21008403,3.68067227 6.73781513,0.847058824 11.1109244,0.168067227 L11.1109244,5.09243697 L9.10420168,7.14285714 C8.85210084,7.03865546 8.58319328,6.98823529 8.31092437,6.98487395 C7.15798319,6.98487395 6.21680672,7.90588235 6.21680672,9.03865546 C6.21680672,10.1714286 7.15462185,11.092437 8.31092437,11.092437 C9.46386555,11.092437 10.4016807,10.1714286 10.4016807,9.03865546 C10.4016807,8.75630252 10.3411765,8.47731092 10.2268908,8.21848739 L12.2302521,6.17142857 L14.4352941,6.17142857 C14.6,6.62857143 14.9193277,7.00504202 15.3361345,7.24705882 L13.9142857,11.0890756 C12.8621849,11.1966387 12.0386555,12.0605042 12.0386555,13.1226891 C12.0386555,14.2554622 12.9764706,15.1764706 14.1294118,15.1731092 Z M16.9226891,5.48907563 C16.9226891,5.77142857 16.687395,6.00336134 16.4016807,6.00336134 C16.1159664,6.00672269 15.8806723,5.77815126 15.8773109,5.48907563 C15.8773109,5.20672269 16.112605,4.97478992 16.4016807,4.97478992 C16.687395,4.97478992 16.9226891,5.20672269 16.9226891,5.48907563 Z M8.60672269,8.62521008 C8.62689076,8.6487395 8.70756303,8.69243697 8.73109244,8.74621849 C8.79495798,8.8302521 8.83193277,8.93109244 8.83529412,9.03529412 C8.83529412,9.31764706 8.6,9.54957983 8.31092437,9.54957983 C8.02521008,9.55294118 7.78991597,9.3210084 7.78655462,9.03529412 C7.78655462,8.75294118 8.02184874,8.5210084 8.31092437,8.5210084 C8.42184874,8.52436975 8.52268908,8.56470588 8.60672269,8.62521008 L8.60672269,8.62521008 Z M13.605042,13.1193277 C13.605042,12.8369748 13.8403361,12.605042 14.1260504,12.605042 C14.4151261,12.605042 14.6504202,12.8369748 14.6504202,13.1193277 C14.6504202,13.4016807 14.4151261,13.6336134 14.1260504,13.6336134 C13.8436975,13.6369748 13.6084034,13.405042 13.605042,13.1193277 Z" id="(2)AI_Inteligencia-Artificial_3Masa"></path>
        </g>
    </g>
</svg>

<svg width="24" height="24" viewBox="0 0 24 24" xmlns="http://www.w3.org/2000/svg"><path d="M13.286 0c6.047 0 9.378 3.27 9.378 9.207 0 1.203-.141 2.238-.38 3.143h-6.218a2.06 2.06 0 00-.642-.834l1.499-4.05c.9-.229 1.57-1.026 1.57-1.98 0-1.133-.938-2.054-2.095-2.054-.84 0-1.566.49-1.895 1.197H12.68V.02c.201-.007.4-.02.605-.02zm.843 15.173a2.097 2.097 0 001.94-1.284h5.65c-.766 1.617-1.882 2.645-2.978 3.27l-.013 5.44a1.038 1.038 0 01-1.046 1.025H8.808a1.038 1.038 0 01-1.045-1.026V20.76c-1.405-.142-2.44-.578-3.082-1.308-.555-.625-.703-1.365-.663-1.852l-.03-2.01-2.198-.568a1.04 1.04 0 01-.74-.713c-.1-.35-.006-.726.246-.988a12.237 12.237 0 001.899-2.551c.444-.81.696-1.634.743-2.45C4.21 3.68 6.738.846 11.11.167v4.924l-2.007 2.05a2.14 2.14 0 00-.793-.157c-1.153 0-2.094.92-2.094 2.054 0 1.132.938 2.053 2.094 2.053 1.153 0 2.09-.92 2.09-2.053 0-.283-.06-.562-.174-.82L12.23 6.17h2.205c.165.458.484.834.901 1.076l-1.422 3.842c-1.052.108-1.875.972-1.875 2.034 0 1.132.937 2.053 2.09 2.05zm2.794-9.684a.52.52 0 01-.521.514.519.519 0 01-.525-.514.52.52 0 01.525-.514.52.52 0 01.52.514zM8.607 8.625c.02.024.1.067.124.121.064.084.1.185.104.29a.52.52 0 01-.524.514.52.52 0 01-.524-.515.52.52 0 01.524-.514c.11.003.212.044.296.104zm4.998 4.494a.52.52 0 01.521-.514.52.52 0 01.524.514.52.52 0 01-.524.515.52.52 0 01-.521-.515z" fill="#5CB615" fill-rule="nonzero"/></svg>
